assets/flags-color/Gr.svg

<svg xmlns="http://www.w3.org/2000/svg" viewBox="0 0 512 512"><g fill="#f5f5f5"><path d="M0 57.177h512v56.807H0zM0 170.787h512v56.807H0zM0 284.397h512v56.807H0z"/></g><path fill="#41479b" d="M0 341.207h512v56.807H0z"/><path fill="#f5f5f5" d="M0 398.017h512v56.807H0z"/><g fill="#41479b"><path d="M0 454.827h512v56.807H0zM512 57.173V.366H0v284.036h512v-56.807H269.087v-56.807H512V113.98H269.087V57.173z"/></g><path fill="#f5f5f5" d="M269.087 113.98H162.946V.366H106.14V113.98H0v56.808h106.14v113.614h56.806V170.788h106.141z"/></svg>

<svg xmlns="http://www.w3.org/2000/svg" x="0" y="0" enable-background="new 0 0 512 512" version="1.1" viewBox="0 0 512 512" xml:space="preserve"><g fill="#F5F5F5"><path d="M0 57.177H512V113.98400000000001H0z"/><path d="M0 170.787H512V227.594H0z"/><path d="M0 284.397H512V341.204H0z"/></g><path fill="#41479B" d="M0 341.207H512V398.014H0z"/><path fill="#F5F5F5" d="M0 398.017H512V454.824H0z"/><g fill="#41479B"><path d="M0 454.827H512V511.634H0z"/><path d="M512 57.173 512 .366 0 .366 0 113.98 0 170.788 0 284.402 512 284.402 512 227.595 269.087 227.595 269.087 170.788 512 170.788 512 113.98 269.087 113.98 269.087 57.173z"/></g><path fill="#F5F5F5" d="M269.087 113.98 162.946 113.98 162.946.366 106.14.366 106.14 113.98 0 113.98 0 170.788 106.14 170.788 106.14 284.402 162.946 284.402 162.946 170.788 269.087 170.788z"/></svg>
